src/assets/img/icons/duotone-icons/Media/Music.svg

<?xml version="1.0" encoding="UTF-8"?>
<svg width="24px" height="24px" viewBox="0 0 24 24" version="1.1" xmlns="http://www.w3.org/2000/svg" xmlns:xlink="http://www.w3.org/1999/xlink">
    <!-- Generator: Sketch 52.2 (67145) - http://www.bohemiancoding.com/sketch -->
    <title>Stockholm-icons / Media / Music</title>
    <desc>Created with Sketch.</desc>
    <g id="Stockholm-icons-/-Media-/-Music" stroke="none" stroke-width="1" fill="none" fill-rule="evenodd">
        <rect id="bound" x="0" y="0" width="24" height="24"></rect>
        <path d="M8,17.0400072 L8,8 C8,7.56261503 8.28424981,7.17598102 8.70172501,7.04552002 L17.701725,4.54552002 C18.3456556,4.34429171 19,4.82535976 19,5.5 L19,17 C18.9996127,18.1048793 17.880473,19 16.5,19 C15.1192881,19 14,18.1045695 14,17 C14,15.8954305 15.1192881,15 16.5,15 C16.6712329,15 16.838445,15.0137721 17,15.0400072 L17,8 L10,9.875 L10,19 C9.99961272,20.1048793 8.88047301,21 7.5,21 C6.11928813,21 5,20.1045695 5,19 C5,17.8954305 6.11928813,17 7.5,17 C7.67123292,17 7.83844503,17.0137721 8,17.0400072 Z" id="Combined-Shape" fill="#335EEA"></path>
    </g>
</svg>

<svg width="24" height="24" viewBox="0 0 24 24" xmlns="http://www.w3.org/2000/svg"><g fill="none" fill-rule="evenodd"><path d="M0 0h24v24H0z"/><path d="M8 17.04V8a1 1 0 01.702-.954l9-2.5A1 1 0 0119 5.5V17c0 1.105-1.12 2-2.5 2s-2.5-.895-2.5-2 1.12-2 2.5-2c.171 0 .338.014.5.04V8l-7 1.875V19c0 1.105-1.12 2-2.5 2S5 20.105 5 19s1.12-2 2.5-2c.171 0 .338.014.5.04z" fill="#335EEA"/></g></svg>
